src/assets/light/pipeline.svg

<svg height="16" viewBox="0 0 16 16" width="16" xmlns="http://www.w3.org/2000/svg"><path d="m4 7.49998077h2.06301369c.22202809-.86260385 1.00507352-1.49998077 1.93698631-1.49998077s1.71495822.63737692 1.93698631 1.49998077h2.06301369c1.4110099 0 2-.98648019 2-1.98887117s-.4878142-2.01008744-2-2.01008744c-1.4444688 0-3.79889285 0-7.06327212 0-.21039129.81563071-.92242337 1.42967165-1.78746554 1.4934921l-.14926234.00548574c-1.1045695 0-2-.8954305-2-2s.8954305-2 2-2c.93191279 0 1.71495822.63737692 1.93698631 1.49998077h7.06301369c2 0 3 1.52223843 3 3.01112883s-1 2.98991256-3 2.98991256c-.4384512 0-1.1262086 0-2.06327212 0-.22237669.86209492-1.0051763 1.49897784-1.93672788 1.49897784s-1.71435119-.63688292-1.93672788-1.49897784c-.80692238 0-1.49467975 0-2.06327212 0-1.43250322-.00102216-2 .99224529-2 1.99348354 0 1.0012382.74664899 2.0054751 2 2.0054751h7.0630137c.2220281-.8626039 1.0050735-1.4999808 1.9369863-1.4999808 1.1045695 0 2 .8954305 2 2s-.8954305 2-2 2c-.9315516 0-1.7143512-.6368829-1.9367279-1.4989778-2.94331877 0-5.29774281 0-7.0632721 0-2 0-3-1.5010222-3-3.0065165 0-1.50549438 1-2.99452493 3-2.99452493zm9 4.50001923c-.5522847 0-1 .4477153-1 1s.4477153 1 1 1 1-.4477153 1-1-.4477153-1-1-1zm-5-5c-.55228475 0-1 .44771525-1 1s.44771525 1 1 1 1-.44771525 1-1-.44771525-1-1-1zm-5-5c-.55228475 0-1 .44771525-1 1s.44771525 1 1 1 1-.44771525 1-1-.44771525-1-1-1z" fill="#424242" fill-rule="evenodd"/></svg>

<?xml version="1.0" encoding="UTF-8"?>
<svg width="16px" height="16px" viewBox="0 0 16 16" version="1.1" xmlns="http://www.w3.org/2000/svg" xmlns:xlink="http://www.w3.org/1999/xlink">
    <title>Artboard</title>
    <g stroke="none" stroke-width="1" fill="none" fill-rule="evenodd">
        <path d="M4,7.49998077 C4.77997728,7.49998077 5.46764851,7.49998077 6.06301369,7.49998077 C6.28504178,6.63737692 7.06808721,6 8,6 C8.93191279,6 9.71495822,6.63737692 9.93698631,7.49998077 C10.7860785,7.49998077 11.4737498,7.49998077 12,7.49998077 C13.4110099,7.49998077 14,6.51350058 14,5.5111096 C14,4.50871862 13.5121858,3.50102216 12,3.50102216 C10.5555312,3.50102216 8.20110715,3.50102216 4.93672788,3.50102216 C4.72633659,4.31665287 4.01430451,4.93069381 3.14926234,4.99451426 L3,5 C1.8954305,5 1,4.1045695 1,3 C1,1.8954305 1.8954305,1 3,1 C3.93191279,1 4.71495822,1.63737692 4.93698631,2.49998077 C9.02100456,2.49998077 11.3753425,2.49998077 12,2.49998077 C14,2.49998077 15,4.0222192 15,5.5111096 C15,7 14,8.50102216 12,8.50102216 C11.5615488,8.50102216 10.8737914,8.50102216 9.93672788,8.50102216 C9.71435119,9.36311708 8.93155158,10 8,10 C7.06844842,10 6.28564881,9.36311708 6.06327212,8.50102216 C5.25634974,8.50102216 4.56859237,8.50102216 4,8.50102216 C2.56749678,8.5 2,9.49326745 2,10.4945057 C2,11.4957439 2.74664899,12.4999808 4,12.4999808 C6.12065908,12.4999808 8.47499698,12.4999808 11.0630137,12.4999808 C11.2850418,11.6373769 12.0680872,11 13,11 C14.1045695,11 15,11.8954305 15,13 C15,14.1045695 14.1045695,15 13,15 C12.0684484,15 11.2856488,14.3631171 11.0632721,13.5010222 C8.11995333,13.5010222 5.76552929,13.5010222 4,13.5010222 C2,13.5010222 1,12 1,10.4945057 C1,8.98901132 2,7.49998077 4,7.49998077 Z M13,12 C12.4477153,12 12,12.4477153 12,13 C12,13.5522847 12.4477153,14 13,14 C13.5522847,14 14,13.5522847 14,13 C14,12.4477153 13.5522847,12 13,12 Z M8,7 C7.44771525,7 7,7.44771525 7,8 C7,8.55228475 7.44771525,9 8,9 C8.55228475,9 9,8.55228475 9,8 C9,7.44771525 8.55228475,7 8,7 Z M3,2 C2.44771525,2 2,2.44771525 2,3 C2,3.55228475 2.44771525,4 3,4 C3.55228475,4 4,3.55228475 4,3 C4,2.44771525 3.55228475,2 3,2 Z" fill="#424242"></path>
    </g>
</svg>
